packages/icons/general/Gear.dark.svg

<svg width="24" height="24" viewBox="0 0 24 24" fill="none" xmlns="http://www.w3.org/2000/svg">
<path d="M22.1531 11.1344L17.8078 3.60625C17.4961 3.06719 16.9172 2.73438 16.2961 2.73438H7.70625C7.02422 2.73438 6.38672 3.10234 6.04688 3.69297L1.74844 11.1344C1.43672 11.6734 1.43672 12.3414 1.74844 12.8781L6.09375 20.4039C6.40547 20.943 6.98203 21.2758 7.60547 21.2758H16.2961C16.9172 21.2758 17.4961 20.9406 17.8078 20.4039L22.1531 12.8781C22.4625 12.3391 22.4625 11.6711 22.1531 11.1344ZM20.7305 12.0578L16.3852 19.5836C16.3664 19.6164 16.3312 19.6352 16.2961 19.6352H7.60547C7.56797 19.6352 7.53516 19.6164 7.51641 19.5836L3.17109 12.0578C3.15234 12.025 3.15234 11.9852 3.17109 11.9547L7.46719 4.51563C7.51641 4.43125 7.60781 4.37734 7.70625 4.37734H16.2961C16.3336 4.37734 16.3664 4.39609 16.3852 4.42891L20.7305 11.9547C20.7492 11.9852 20.7492 12.025 20.7305 12.0578Z" fill="#F5F5F5"/>
<path d="M11.9504 8.44727C9.98867 8.44727 8.39258 10.0434 8.39258 12.0051C8.39258 13.9668 9.98867 15.5629 11.9504 15.5629C13.9121 15.5629 15.5082 13.9691 15.5082 12.0074C15.5082 10.0457 13.9121 8.44727 11.9504 8.44727ZM11.9504 13.9246C10.8934 13.9246 10.0332 13.0645 10.0332 12.0074C10.0332 10.9504 10.8934 10.0902 11.9504 10.0902C13.0074 10.0902 13.8676 10.9504 13.8676 12.0074C13.8676 13.0645 13.0074 13.9246 11.9504 13.9246Z" fill="#F5F5F5"/>
</svg>

<svg xmlns="http://www.w3.org/2000/svg" fill="none" viewBox="0 0 24 24">
    <path fill="#F5F5F5" d="m22.153 11.134-4.345-7.528a1.75 1.75 0 0 0-1.512-.872h-8.59c-.682 0-1.32.368-1.66.959l-4.298 7.441a1.743 1.743 0 0 0 0 1.744l4.346 7.526c.311.539.888.872 1.511.872h8.691c.621 0 1.2-.335 1.512-.872l4.345-7.526c.31-.539.31-1.207 0-1.744Zm-1.422.924-4.346 7.526a.104.104 0 0 1-.089.051h-8.69a.1.1 0 0 1-.09-.051l-4.345-7.526a.101.101 0 0 1 0-.103l4.296-7.44a.279.279 0 0 1 .24-.138h8.59a.1.1 0 0 1 .088.052l4.345 7.526c.02.03.02.07 0 .103Z"/>
    <path fill="#F5F5F5" d="M11.95 8.447a3.562 3.562 0 0 0-3.557 3.558 3.562 3.562 0 0 0 3.557 3.558 3.56 3.56 0 0 0 3.558-3.556 3.564 3.564 0 0 0-3.558-3.56Zm0 5.478a1.92 1.92 0 0 1-1.917-1.918 1.92 1.92 0 0 1 1.917-1.917 1.92 1.92 0 0 1 1.918 1.917 1.92 1.92 0 0 1-1.918 1.918Z"/>
</svg>
